src/assets/svg/funding-img1.svg

<svg width="61" height="60" viewBox="0 0 61 60" fill="none" xmlns="http://www.w3.org/2000/svg">
<path d="M42.634 19.5049C42.634 19.5049 39.989 36.6621 50.52 36.9318M50.52 36.9318V19.5049M50.52 36.9318C61.0494 36.6621 58.4044 19.5049 58.4044 19.5049M44.2921 57.629C44.2921 57.629 46.5188 43.1597 33.1635 43.1597C29.6113 45.5288 26.5679 47.1655 23.1459 47.1593H23.2854C19.865 47.1655 16.8215 45.5288 13.2693 43.1597C-0.0874262 43.1597 2.13921 57.629 2.13921 57.629M29.8243 23.0647C29.8243 23.3572 29.7667 23.6467 29.6548 23.9168C29.5429 24.187 29.3789 24.4325 29.1722 24.6392C28.9654 24.846 28.7199 25.01 28.4498 25.1219C28.1796 25.2338 27.8901 25.2914 27.5977 25.2914C27.3053 25.2914 27.0157 25.2338 26.7456 25.1219C26.4754 25.01 26.23 24.846 26.0232 24.6392C25.8165 24.4325 25.6524 24.187 25.5405 23.9168C25.4286 23.6467 25.371 23.3572 25.371 23.0647C25.371 22.4742 25.6056 21.9079 26.0232 21.4903C26.4408 21.0727 27.0071 20.8381 27.5977 20.8381C28.1882 20.8381 28.7546 21.0727 29.1722 21.4903C29.5897 21.9079 29.8243 22.4742 29.8243 23.0647ZM20.9208 23.0647C20.9208 23.6553 20.6862 24.2216 20.2687 24.6392C19.8511 25.0568 19.2847 25.2914 18.6942 25.2914C18.1037 25.2914 17.5373 25.0568 17.1197 24.6392C16.7021 24.2216 16.4676 23.6553 16.4676 23.0647C16.4676 22.4742 16.7021 21.9079 17.1197 21.4903C17.5373 21.0727 18.1037 20.8381 18.6942 20.8381C19.2847 20.8381 19.8511 21.0727 20.2687 21.4903C20.6862 21.9079 20.9208 22.4742 20.9208 23.0647Z" stroke="#00C700" stroke-width="3" stroke-linecap="round" stroke-linejoin="round"/>
<path d="M10.6288 20.8385C10.2258 22.9258 10.1622 25.0645 10.4403 27.1721L9.91467 26.5897C9.91467 26.5897 4.73501 18.9643 12.7558 11.1289H33.027C41.0478 18.9643 35.8697 26.5897 35.8697 26.5897L29.5698 12.5372C29.5698 12.5372 27.9239 16.7744 23.2776 16.4266C23.2776 16.4266 24.4622 11.1289 22.9619 11.1289C22.9619 11.1289 17.1922 18.0494 10.638 20.84" stroke="#00C700" stroke-width="3" stroke-linecap="round" stroke-linejoin="round"/>
<path d="M10.8834 20.8379C10.6467 22.0713 10.5272 23.3242 10.5264 24.5801C10.5264 33.2921 16.1765 40.3551 23.146 40.3551C29.7907 40.3551 35.2355 33.9372 35.7289 25.7892M13.1989 43.161L19.6582 53.0514L23.2165 47.1576L26.7733 53.0514L33.2326 43.161" stroke="#00C700" stroke-width="3" stroke-linecap="round" stroke-linejoin="round"/>
<path d="M13.4977 43.4449V57.6139M13.4977 57.6139L32.9168 57.5986M13.4977 57.6139L2.1377 57.6292M32.9168 57.5986V43.4219M32.9168 57.5986L44.2921 57.6292M13.369 11.1288V2L23.146 3.57842L32.9229 2V11.1288M7.77709 44.2203V57.6139M38.3754 44.2203V57.6445M13.369 7.22869H32.9229M4.8302 11.1288H41.0771M50.6165 41.6566V57.6292M18.8107 31.7508C21.3239 34.0066 24.9803 34.215 27.4812 31.7508M47.567 36.9336H53.6661V41.6566H47.567V36.9336Z" stroke="#00C700" stroke-width="3" stroke-linecap="round" stroke-linejoin="round"/>
</svg>

<svg xmlns="http://www.w3.org/2000/svg" width="61" height="60" fill="none"><path stroke="#00C700" stroke-linecap="round" stroke-linejoin="round" stroke-width="3" d="M42.634 19.505s-2.645 17.157 7.886 17.427m0 0V19.505m0 17.427c10.53-.27 7.884-17.427 7.884-17.427M44.292 57.629s2.227-14.47-11.129-14.47c-3.552 2.37-6.595 4.007-10.017 4h.14c-3.421.007-6.465-1.63-10.017-4-13.356 0-11.13 14.47-11.13 14.47m27.685-34.564a2.226 2.226 0 1 1-4.452 0 2.226 2.226 0 0 1 4.452 0m-8.903 0a2.227 2.227 0 1 1-4.454 0 2.227 2.227 0 0 1 4.454 0"/><path stroke="#00C700" stroke-linecap="round" stroke-linejoin="round" stroke-width="3" d="M10.629 20.839a19.8 19.8 0 0 0-.189 6.333l-.525-.582s-5.18-7.626 2.84-15.461h20.272c8.02 7.835 2.843 15.46 2.843 15.46l-6.3-14.052s-1.646 4.237-6.292 3.89c0 0 1.184-5.298-.316-5.298 0 0-5.77 6.92-12.324 9.711"/><path stroke="#00C700" stroke-linecap="round" stroke-linejoin="round" stroke-width="3" d="M10.883 20.838a20 20 0 0 0-.357 3.742c0 8.712 5.65 15.775 12.62 15.775 6.645 0 12.09-6.418 12.583-14.566m-22.53 17.372 6.46 9.89 3.558-5.893 3.556 5.893 6.46-9.89"/><path stroke="#00C700" stroke-linecap="round" stroke-linejoin="round" stroke-width="3" d="M13.498 43.445v14.169m0 0 19.419-.015m-19.42.015-11.36.015m30.78-.03V43.422m0 14.177 11.375.03M13.37 11.13V2l9.777 1.578L32.923 2v9.129M7.777 44.22v13.394M38.375 44.22v13.425M13.37 7.229h19.554m-28.093 3.9h36.247m9.54 30.528v15.972M18.81 31.751c2.513 2.256 6.17 2.464 8.67 0m20.086 5.183h6.1v4.723h-6.1z"/></svg>
